svgs/bikesharinghub.svg

<svg xmlns="http://www.w3.org/2000/svg" viewBox="0 0 192 192"><path d="M101.411 54.419h12.809l-13.032 62.757h44.608l-34.483-45.212m-10.127 45.211L57.601 61.141 46.211 116l16.51-79.5 16.518 5.712" fill="none" stroke="#000" stroke-width="8" stroke-linecap="round" stroke-linejoin="round"/><path d="M117.143 107.032a44.758 44.758 0 0 1 3.028-9.253m11.908-14.61c6.205-4.166 13.356-5.372 20.183-3.403 6.827 1.968 12.9 6.986 17.142 14.164 4.241 7.178 6.384 16.064 6.049 25.08-.335 9.016-3.129 17.596-7.884 24.216-4.755 6.621-11.173 10.865-18.114 11.98-6.941 1.116-13.97-.969-19.838-5.882-5.868-4.914-10.206-12.348-12.244-20.983M61.699 83.287c6.122 4.824 10.688 12.35 12.847 21.178 2.159 8.827 1.769 18.372-1.097 26.858-2.867 8.485-8.021 15.351-14.502 19.317-6.482 3.967-13.862 4.773-20.768 2.268-6.906-2.505-12.88-8.155-16.811-15.898-3.931-7.743-5.558-17.068-4.579-26.238.979-9.17 4.499-17.58 9.906-23.663 5.407-6.083 12.343-9.438 19.516-9.44" fill="none" stroke="#000" stroke-width="8" stroke-linecap="round" stroke-linejoin="round"/></svg>

<svg
    xmlns="http://www.w3.org/2000/svg"
    viewBox="0 0 192 192"
    id="vector">
    <path
        id="path"
        d="M 101.411 54.419 L 114.22 54.419 L 101.188 117.176 L 145.796 117.176 L 111.313 71.964 M 101.186 117.175 L 57.601 61.141 L 46.211 116 L 62.721 36.5 L 79.239 42.212"
        fill="none"
        stroke="#000000"
        stroke-width="8"
        stroke-linecap="round"
        stroke-linejoin="round"/>
    <path
        id="path_1"
        d="M 117.143 107.032 C 117.832 103.789 118.85 100.677 120.171 97.779 M 132.079 83.169 C 138.284 79.003 145.435 77.797 152.262 79.766 C 159.089 81.734 165.162 86.752 169.404 93.93 C 173.645 101.108 175.788 109.994 175.453 119.01 C 175.118 128.026 172.324 136.606 167.569 143.226 C 162.814 149.847 156.396 154.091 149.455 155.206 C 142.514 156.322 135.485 154.237 129.617 149.324 C 123.749 144.41 119.411 136.976 117.373 128.341 M 61.699 83.287 C 67.821 88.111 72.387 95.637 74.546 104.465 C 76.705 113.292 76.315 122.837 73.449 131.323 C 70.582 139.808 65.428 146.674 58.947 150.64 C 52.465 154.607 45.085 155.413 38.179 152.908 C 31.273 150.403 25.299 144.753 21.368 137.01 C 17.437 129.267 15.81 119.942 16.789 110.772 C 17.768 101.602 21.288 93.192 26.695 87.109 C 32.102 81.026 39.038 77.671 46.211 77.669"
        fill="none"
        stroke="#000000"
        stroke-width="8"
        stroke-linecap="round"
        stroke-linejoin="round"/>
</svg>
